brandFactory_export/2.Regular/Flor_2Regular.svg

<?xml version="1.0" encoding="UTF-8"?>
<svg width="24px" height="24px" viewBox="0 0 24 24" version="1.1" xmlns="http://www.w3.org/2000/svg" xmlns:xlink="http://www.w3.org/1999/xlink">
    <title>2.Regular/Flor_2Regular</title>
    <g id="Symbols" stroke="none" stroke-width="1" fill="none" fill-rule="evenodd">
        <g id="2.Regular/Flor_2Regular" fill="#5CB615" fill-rule="nonzero">
            <path d="M15.3445378,12.8436975 C15.3815126,12.4336134 15.3714286,12.0235294 15.3176471,11.6168067 C15.307563,11.5495798 15.2941176,11.4823529 15.2840336,11.4151261 C15.2605042,11.2806723 15.2302521,11.1428571 15.1932773,11.0117647 C15.1731092,10.9445378 15.1563025,10.8739496 15.1327731,10.810084 C15.0957983,10.702521 15.0521008,10.5983193 15.005042,10.4941176 C14.9445378,10.3596639 14.8739496,10.2285714 14.7932773,10.107563 L14.7327731,10.010084 C14.712605,9.98319328 14.6957983,9.94621849 14.6722689,9.91932773 C15.9731092,8.44033613 17.1966387,7.46554622 18.0840336,7.21344538 C20.0739496,6.64537815 21.4184874,7.41848739 21.9731092,9.43865546 C22.5277311,11.4655462 21.7680672,12.8369748 19.7781513,13.405042 C18.8773109,13.6571429 17.2806723,13.4554622 15.3445378,12.8436975 M19.502521,19.3781513 C19.3613445,20.1344538 18.8571429,20.8134454 18.0067227,21.4016807 C16.302521,22.5815126 14.789916,22.2857143 13.6302521,20.5445378 C13.0722689,19.707563 12.7529412,18.0201681 12.7361345,15.8655462 C12.7697479,15.8588235 12.7966387,15.8453782 12.8268908,15.8386555 C13.0016807,15.8016807 13.1731092,15.7512605 13.3411765,15.687395 C13.4016807,15.6638655 13.4588235,15.6369748 13.5193277,15.6134454 C13.6638655,15.5495798 13.8016807,15.4756303 13.9294118,15.394958 C13.9731092,15.3647059 14.0201681,15.3411765 14.0605042,15.3142857 C14.2218487,15.1966387 14.3697479,15.0689076 14.5042017,14.9243697 C14.5310924,14.8941176 14.5546218,14.8571429 14.5815126,14.8235294 C14.6823529,14.702521 14.7731092,14.5714286 14.8571429,14.4336134 C14.8739496,14.4067227 14.8941176,14.3865546 14.9109244,14.3596639 C16.8705882,15.1731092 18.2857143,16.0941176 18.8470588,16.9310924 C19.4218487,17.7983193 19.6436975,18.6218487 19.502521,19.3781513 M10.0840336,20.5647059 C9.50588235,21.4319328 8.83697479,21.9428571 8.09411765,22.087395 C7.3512605,22.2252101 6.5512605,22.0033613 5.70084034,21.4117647 C3.99663866,20.2352941 3.70756303,18.692437 4.86386555,16.9478992 C5.40840336,16.1277311 6.80336134,15.2168067 8.7394958,14.4067227 C8.75630252,14.4369748 8.78319328,14.4605042 8.8,14.4907563 C8.88067227,14.6184874 8.96806723,14.7394958 9.06554622,14.8537815 C9.10252101,14.8941176 9.13277311,14.9378151 9.1697479,14.9781513 C9.30420168,15.1193277 9.45210084,15.2470588 9.61680672,15.3579832 C9.6605042,15.3848739 9.71092437,15.4084034 9.75462185,15.4352941 C10.0840336,15.6369748 10.4470588,15.7747899 10.8268908,15.8453782 C10.8773109,15.8554622 10.9210084,15.8756303 10.9714286,15.8857143 C10.9579832,18.0436975 10.6386555,19.7277311 10.0840336,20.5647059 M3.83865546,13.4184874 C2.84705882,13.1361345 2.15798319,12.6554622 1.78823529,11.9865546 C1.41848739,11.3176471 1.37142857,10.4672269 1.64705882,9.45546218 C1.92268908,8.44705882 2.39663866,7.74117647 3.05210084,7.36470588 C3.44537815,7.14621849 3.89243697,7.03529412 4.34285714,7.04537815 C4.7092437,7.04537815 5.10588235,7.10588235 5.53277311,7.2302521 C6.42016807,7.48571429 7.63697479,8.45714286 8.92773109,9.93277311 C8.79663866,10.1109244 8.69243697,10.3092437 8.59831933,10.5243697 C8.57142857,10.5848739 8.5512605,10.6487395 8.52773109,10.712605 C8.46386555,10.8907563 8.41008403,11.0756303 8.3697479,11.2605042 C8.35630252,11.3344538 8.3394958,11.4084034 8.32605042,11.4857143 C8.28235294,11.7647059 8.25882353,12.0436975 8.25882353,12.3260504 C8.25882353,12.5109244 8.26554622,12.6890756 8.28235294,12.8638655 C6.34957983,13.4756303 4.75294118,13.6840336 3.83865546,13.4184874 M11.8184874,1.49579832 C13.8823529,1.50588235 14.9680672,2.62184874 14.9613756,4.72605042 C14.9613756,5.67731092 14.3428571,7.17983193 13.2436975,8.90084034 C13.210084,8.88739496 13.1697479,8.88403361 13.1361345,8.87394958 C12.9815126,8.82689076 12.8235294,8.78991597 12.6655462,8.76302521 C12.6117647,8.75294118 12.5579832,8.74285714 12.5042017,8.73613445 C12.2756303,8.70252101 12.0436975,8.68907563 11.8117647,8.68571429 C11.5630252,8.68571429 11.3310924,8.70588235 11.1058824,8.7394958 C11.0621849,8.74621849 11.0218487,8.75294118 10.9781513,8.75966387 C10.789916,8.79327731 10.6151261,8.83361345 10.4470588,8.88739496 C10.4201681,8.89411765 10.389916,8.89747899 10.3663866,8.90756303 C9.27394958,7.18991597 8.65546218,5.68067227 8.66213064,4.7092437 C8.66213064,2.60840336 9.75462185,1.49579832 11.8184874,1.49579832 M11.9798319,14.4470588 C11.9226891,14.4470588 11.8689076,14.4504202 11.8117647,14.4571429 L11.7210084,14.4571429 C10.3327731,14.4268908 9.98319328,13.7478992 9.84201681,13.2403361 C9.83529412,13.2134454 9.82521008,13.1865546 9.81512605,13.1630252 C9.79495798,13.0857143 9.78487395,13.0016807 9.77142857,12.9176471 C9.76470588,12.8672269 9.7512605,12.8201681 9.74453782,12.7663866 C9.73109244,12.6184874 9.7210084,12.4672269 9.7210084,12.3159664 C9.7210084,11.4823529 9.93613445,10.8941176 10.3596639,10.5613445 C10.3865546,10.5411765 10.4201681,10.5243697 10.4806723,10.487395 C10.810084,10.2823529 11.2571429,10.1781513 11.8084034,10.1781513 C12.3630252,10.1781513 12.8033613,10.2789916 13.1260504,10.4773109 C13.1428571,10.4907563 13.2201681,10.5411765 13.2403361,10.5512605 C13.6739496,10.8773109 13.8957983,11.4689076 13.8957983,12.3159664 C13.902521,12.6117647 13.8689076,12.9042017 13.794958,13.1932773 L13.794958,13.1966387 C13.6504202,13.7546218 13.3109244,14.3966387 11.9798319,14.4470588 M23.3915966,9.03529412 C22.6117647,6.19831933 20.4840336,4.98151261 17.6941176,5.76806723 C17.1495798,5.92268908 16.594958,6.23529412 16.0504202,6.62184874 C16.2789916,5.96638655 16.4302521,5.3210084 16.4302521,4.73277311 C16.4403361,1.78151261 14.7193277,0.0134453782 11.8252101,0 L11.8218487,0 C8.92436975,0 7.19327731,1.76134454 7.19327731,4.70252101 C7.18991597,5.31092437 7.34117647,5.97310924 7.57647059,6.64201681 C7.03193277,6.25546218 6.47731092,5.94285714 5.92941176,5.78487395 C4.57142857,5.39495798 3.32773109,5.48907563 2.33277311,6.05714286 C1.33781513,6.62857143 0.608403361,7.66386555 0.231932773,9.05210084 C-0.544537815,11.8957983 0.655462185,14.0672269 3.44537815,14.8571429 C3.81512605,14.9647059 4.23193277,15.0117647 4.66218487,15.0184874 C4.25882353,15.3546218 3.90588235,15.7176471 3.65042017,16.1042017 C2.02689076,18.5546218 2.48739496,21.0016807 4.87731092,22.6487395 C5.80168067,23.2941176 6.75294118,23.6235294 7.66722689,23.6235294 C7.90252101,23.6235294 8.13781513,23.6033613 8.36638655,23.5563025 C9.48907563,23.3411765 10.5008403,22.594958 11.2941176,21.405042 C11.5260504,21.0554622 11.707563,20.6319328 11.8588235,20.1815126 C12.0067227,20.6252101 12.1848739,21.0420168 12.4134454,21.3848739 C13.3983193,22.8605042 14.6621849,23.6168067 16.0403361,23.6168067 C16.9378151,23.6168067 17.8857143,23.2941176 18.8302521,22.6386555 C20,21.8319328 20.7327731,20.8033613 20.9445378,19.6571429 C21.1563025,18.5176471 20.8504202,17.2806723 20.0571429,16.087395 L20.0571429,16.0840336 C19.7983193,15.6941176 19.4386555,15.3310924 19.0285714,14.9915966 C19.4151261,14.9882353 19.7983193,14.9378151 20.1714286,14.8403361 C22.9647059,14.0504202 24.1680672,11.8789916 23.3915966,9.03529412" id="Flor_2Regular"></path>
        </g>
    </g>
</svg>

<svg width="24" height="24" viewBox="0 0 24 24" xmlns="http://www.w3.org/2000/svg"><path d="M15.345 12.844c.037-.41.026-.82-.027-1.227-.01-.067-.024-.135-.034-.202a4.115 4.115 0 00-.09-.403c-.02-.067-.038-.138-.061-.202a3.651 3.651 0 00-.128-.316 2.686 2.686 0 00-.212-.386l-.06-.098c-.02-.027-.037-.064-.06-.09 1.3-1.48 2.524-2.454 3.411-2.707 1.99-.568 3.334.205 3.89 2.226.554 2.027-.206 3.398-2.196 3.966-.9.252-2.497.05-4.433-.561m4.158 6.534c-.142.756-.646 1.435-1.496 2.024-1.704 1.18-3.217.884-4.377-.857-.558-.837-.877-2.525-.894-4.68.034-.006.06-.02.09-.026.176-.037.347-.088.515-.152.06-.023.118-.05.178-.074a3.17 3.17 0 00.41-.218c.044-.03.091-.054.132-.08.16-.118.309-.246.443-.39.027-.03.05-.068.078-.101.1-.121.191-.253.275-.39.017-.027.037-.047.054-.074 1.96.813 3.375 1.734 3.936 2.571.575.867.797 1.69.656 2.447m-9.419 1.187c-.578.867-1.247 1.378-1.99 1.522-.743.138-1.543-.084-2.393-.675-1.704-1.177-1.993-2.72-.837-4.464.544-.82 1.94-1.731 3.875-2.541.017.03.044.054.061.084.08.127.168.248.266.363.037.04.067.084.104.124.134.141.282.27.447.38.044.027.094.05.138.077.329.202.692.34 1.072.41.05.01.094.03.144.04-.013 2.159-.332 3.843-.887 4.68m-6.245-7.147c-.992-.282-1.681-.763-2.05-1.431-.37-.67-.418-1.52-.142-2.532.276-1.008.75-1.714 1.405-2.09.393-.219.84-.33 1.29-.32.367 0 .764.06 1.19.185.888.256 2.105 1.227 3.396 2.703a3.048 3.048 0 00-.33.591c-.027.06-.047.125-.07.189a4.434 4.434 0 00-.158.548c-.014.073-.03.147-.044.225a5.414 5.414 0 00-.044 1.378c-1.932.612-3.53.82-4.443.554m7.98-11.922c2.063.01 3.15 1.126 3.142 3.23 0 .951-.618 2.454-1.717 4.175-.034-.014-.074-.017-.108-.027a3.823 3.823 0 00-.47-.111 5.288 5.288 0 00-.854-.077c-.249 0-.48.02-.706.053l-.128.02a4.092 4.092 0 00-.53.128c-.028.007-.058.01-.082.02C9.274 7.19 8.656 5.682 8.662 4.71c0-2.1 1.093-3.213 3.156-3.213m.162 12.951c-.057 0-.111.003-.168.01h-.091c-1.388-.03-1.738-.71-1.879-1.217a.523.523 0 00-.027-.077c-.02-.077-.03-.161-.044-.245-.006-.05-.02-.098-.026-.152a4.988 4.988 0 01-.024-.45c0-.834.215-1.422.639-1.755.027-.02.06-.037.12-.074.33-.205.777-.309 1.328-.309.555 0 .995.101 1.318.3.017.013.094.063.114.073.434.326.656.918.656 1.765.007.296-.027.588-.101.877v.004c-.145.558-.484 1.2-1.815 1.25m11.412-5.412c-.78-2.837-2.908-4.053-5.698-3.267-.544.155-1.099.467-1.644.854.229-.656.38-1.301.38-1.89.01-2.95-1.71-4.719-4.605-4.732h-.003C8.924 0 7.193 1.761 7.193 4.703c-.003.608.148 1.27.383 1.939-.544-.387-1.099-.7-1.647-.857-1.358-.39-2.601-.296-3.596.272C1.338 6.63.608 7.664.232 9.052c-.777 2.844.423 5.015 3.213 5.805.37.108.787.155 1.217.161-.403.337-.756.7-1.012 1.086-1.623 2.45-1.163 4.898 1.227 6.545.925.645 1.876.975 2.79.975.236 0 .47-.02.7-.068 1.122-.215 2.134-.961 2.927-2.151.232-.35.414-.773.565-1.223.148.443.326.86.554 1.203.985 1.476 2.25 2.232 3.627 2.232.898 0 1.846-.323 2.79-.978 1.17-.807 1.903-1.836 2.115-2.982.211-1.14-.095-2.376-.888-3.57v-.003c-.259-.39-.618-.753-1.028-1.092.386-.004.77-.054 1.142-.152 2.794-.79 3.997-2.961 3.22-5.805" fill="#5CB615" fill-rule="nonzero"/></svg>
